src/icons/media.svg

<svg width="191" height="303" viewBox="0 0 191 303" fill="none" xmlns="http://www.w3.org/2000/svg">
<path fill-rule="evenodd" clip-rule="evenodd" d="M188.358 18.0162L160.535 2.03418L2.00879 93.4618L29.6377 109.444L188.358 18.0162Z" fill="#002298"/>
<path fill-rule="evenodd" clip-rule="evenodd" d="M5.95283 93.4658L29.6994 107.118L184.279 18.0202L160.532 4.36756L5.95283 93.4658ZM29.6994 111.454C29.3759 111.454 29.0524 111.324 28.6641 111.195L1.03527 95.2129C0.517637 94.8246 0 94.1776 0 93.4658C0 92.7541 0.517637 92.107 1.03527 91.7188L159.497 0.291171C160.144 -0.0970569 160.856 -0.0970569 161.503 0.291171L189.132 16.2732C189.779 16.6614 190.167 17.3085 190.167 17.9555C190.167 18.6026 189.843 19.3143 189.132 19.7026L30.67 111.195C30.3465 111.389 29.9582 111.454 29.6347 111.454H29.6994Z" fill="#0092FF"/>
<path fill-rule="evenodd" clip-rule="evenodd" d="M29.6294 109.449L2.0005 93.4673L1.87109 284.022L29.6294 300.004V109.449Z" fill="#002298"/>
<path fill-rule="evenodd" clip-rule="evenodd" d="M3.88228 282.857L27.6289 296.51V110.613L4.07639 96.9608L3.88228 282.922V282.857ZM29.6347 301.945C29.3112 301.945 28.9877 301.88 28.5994 301.686L1.03527 285.769C0.323523 285.381 0 284.734 0 284.022V93.4667C0 92.755 0.517637 92.1079 1.03527 91.7197C1.74702 91.3962 2.39407 91.3962 3.04112 91.7197L30.67 107.702C31.317 108.09 31.7053 108.737 31.7053 109.449V300.004C31.7053 300.716 31.1876 301.363 30.67 301.751C30.3465 301.945 29.9582 302.01 29.6347 302.01V301.945Z" fill="#0092FF"/>
<path fill-rule="evenodd" clip-rule="evenodd" d="M188.356 18.0206L29.6357 109.448V300.003L188.162 208.511L188.356 18.0206Z" fill="#002298"/>
<path fill-rule="evenodd" clip-rule="evenodd" d="M31.7014 110.611V296.572L186.151 207.409L186.345 21.4484L31.7014 110.611ZM29.6955 302.008C29.372 302.008 29.0485 301.943 28.6603 301.749C27.9485 301.425 27.625 300.778 27.625 300.066V109.447C27.625 108.735 28.1426 108.088 28.6603 107.7L187.316 16.272C187.834 15.8838 188.675 15.8838 189.192 16.272C189.839 16.6602 190.228 17.3073 190.228 17.9543V208.509C190.228 209.221 189.904 209.868 189.192 210.256L30.6661 301.749C30.3426 301.943 29.9544 302.008 29.6308 302.008H29.6955Z" fill="#0092FF"/>
<path fill-rule="evenodd" clip-rule="evenodd" d="M172.048 158.296L171.854 191.619C171.854 194.142 170.171 197.248 167.971 198.542L49.8208 266.611C47.6208 267.905 45.9385 266.87 45.9385 264.282V204.689L47.2973 202.813C51.5031 196.795 57.4559 193.495 61.7264 194.725L101.067 206.113C105.143 207.277 110.578 204.366 114.978 198.801L144.678 160.625C149.272 154.931 155.03 152.019 158.913 153.443L172.112 158.166L172.048 158.296Z" fill="#291AD8"/>
<path fill-rule="evenodd" clip-rule="evenodd" d="M47.9394 205.407L47.7453 264.352C47.7453 264.935 47.9394 265.194 48.0688 265.194C48.0688 265.194 48.2629 265.194 48.7806 264.935L166.931 196.801C168.484 195.895 169.972 193.436 169.972 191.624V159.725L158.131 155.455C155.09 154.355 149.979 157.072 146.29 161.99L116.462 200.23C111.738 206.442 105.462 209.612 100.544 208.189L61.0745 196.801C57.8392 195.83 52.5982 198.936 48.8453 204.112L48.0041 205.471L47.9394 205.407ZM48.1335 269.205C47.2924 269.205 46.5806 269.011 46.1277 268.688C44.7689 267.911 43.9277 266.358 43.9277 264.417V204.824C43.9277 204.436 44.1218 203.983 44.2513 203.659L45.6101 201.783C50.5276 195.054 57.1275 191.495 62.2391 192.919L101.709 204.371C104.944 205.277 109.668 202.56 113.421 197.771L143.055 159.596C148.167 153.19 154.767 150.019 159.49 151.766L172.69 156.49C173.402 156.813 173.855 157.525 173.855 158.366V191.689C173.855 194.924 171.655 198.677 168.937 200.295L50.8511 268.364C49.8159 268.882 48.9747 269.205 48.1335 269.205Z" fill="#0092FF"/>
<path fill-rule="evenodd" clip-rule="evenodd" d="M172.049 158.301L158.849 153.578C154.967 152.154 149.208 155.066 144.614 160.76L114.915 198.935C110.515 204.5 105.08 207.412 101.003 206.247L61.6629 194.859C57.4571 193.63 51.5043 196.93 47.2338 202.947L45.875 204.824V122.066L172.049 49.2737V158.301Z" fill="#002298"/>
<path fill-rule="evenodd" clip-rule="evenodd" d="M59.8483 192.527C60.6894 192.527 61.4012 192.657 62.2423 192.851L101.712 204.239C104.947 205.145 109.671 202.427 113.424 197.639L143.058 159.463C148.17 153.057 154.77 149.887 159.493 151.634L169.976 155.452V52.7006L47.9426 123.164V198.933C51.5014 194.857 55.9013 192.527 59.7835 192.527H59.8483ZM102.877 208.445C102.036 208.445 101.324 208.315 100.483 208.121L61.0129 196.733C57.7777 195.763 52.5366 198.868 48.7838 204.045L47.425 205.921C46.9073 206.633 46.0662 206.956 45.225 206.633C44.3838 206.374 43.8662 205.598 43.8662 204.756V121.999C43.8662 121.287 44.1897 120.64 44.9015 120.252L171.011 47.5242C171.528 47.136 172.37 47.136 173.081 47.5242C173.599 47.8477 174.117 48.5595 174.117 49.2712L173.923 158.299C173.923 158.946 173.599 159.528 173.081 159.916C172.564 160.304 171.917 160.369 171.399 160.175L158.199 155.387C155.158 154.287 150.047 157.004 146.358 161.922L116.53 200.162C112.453 205.403 107.341 208.445 102.942 208.445H102.877Z" fill="#0092FF"/>
<path fill-rule="evenodd" clip-rule="evenodd" d="M135.614 88.2907C147.002 81.7555 156.125 87.0613 156.125 100.132C156.125 113.202 147.002 129.055 135.614 135.59C124.226 142.125 115.103 136.819 115.103 123.749C115.103 110.679 124.226 94.8259 135.614 88.2907Z" fill="#291AD8"/>
<path fill-rule="evenodd" clip-rule="evenodd" d="M144.745 87.5098C142.35 87.5098 139.503 88.351 136.592 90.0333C125.916 96.2449 117.116 111.386 117.116 123.744C117.116 129.309 118.992 133.45 122.227 135.262C125.463 137.138 129.862 136.621 134.586 133.838C145.262 127.627 154.062 112.486 154.062 100.127C154.062 94.5626 152.38 90.4215 149.144 88.6098C147.786 87.8333 146.233 87.5098 144.745 87.5098ZM126.433 140.438C124.233 140.438 122.033 139.921 120.157 138.821C115.563 136.232 113.233 130.927 113.233 123.809C113.233 110.156 122.745 93.4626 134.586 86.6039C140.668 83.1099 146.621 82.5923 151.215 85.1804C155.615 87.7686 158.138 93.1391 158.138 100.192C158.138 113.845 148.497 130.538 136.592 137.397C133.033 139.468 129.668 140.438 126.433 140.438Z" fill="#0092FF"/>
</svg>

<svg xmlns="http://www.w3.org/2000/svg" width="191" height="303" fill="none">
  <path fill="#002298" fill-rule="evenodd" d="M188.4 18 160.5 2 2 93.5l27.6 16L188.4 18Z" clip-rule="evenodd"/>
  <path fill="#0092FF" fill-rule="evenodd" d="M6 93.5 29.7 107l154.6-89-23.8-13.7L6 93.4Zm23.7 18-1-.3L1 95.2c-.5-.4-1-1-1-1.7s.5-1.4 1-1.8L159.5.3c.6-.4 1.4-.4 2 0l27.6 16c.7.4 1 1 1 1.7a2 2 0 0 1-1 1.7L30.7 111.2a2 2 0 0 1-1 .3Z" clip-rule="evenodd"/>
  <path fill="#002298" fill-rule="evenodd" d="M29.6 109.4 2 93.4 1.9 284l27.7 16V109.4Z" clip-rule="evenodd"/>
  <path fill="#0092FF" fill-rule="evenodd" d="m3.9 282.9 23.7 13.6V110.6L4.1 97l-.2 186v-.1Zm25.7 19c-.3 0-.6 0-1-.2L1 285.7a2 2 0 0 1-1-1.7V93.5c0-.7.5-1.4 1-1.8.7-.3 1.4-.3 2 0l27.7 16c.6.4 1 1 1 1.7V300c0 .7-.5 1.4-1 1.8a2 2 0 0 1-1 .2Z" clip-rule="evenodd"/>
  <path fill="#002298" fill-rule="evenodd" d="M188.4 18 29.6 109.4V300l158.6-91.5.2-190.5Z" clip-rule="evenodd"/>
  <path fill="#0092FF" fill-rule="evenodd" d="M31.7 110.6v186l154.5-89.2.1-186-154.6 89.2Zm-2 191.4c-.3 0-.7 0-1-.3-.8-.3-1-1-1-1.6V109.4c0-.7.4-1.3 1-1.7l158.6-91.4c.5-.4 1.4-.4 1.9 0 .6.4 1 1 1 1.7v190.5a2 2 0 0 1-1 1.8L30.7 301.7a2 2 0 0 1-1 .3Z" clip-rule="evenodd"/>
  <path fill="#291AD8" fill-rule="evenodd" d="m172 158.3-.1 33.3c0 2.5-1.7 5.6-4 7l-118 68c-2.3 1.3-4 .3-4-2.3v-59.6l1.4-1.9c4.2-6 10.2-9.3 14.4-8l39.4 11.3c4 1.2 9.5-1.7 13.9-7.3l29.7-38.2c4.6-5.7 10.3-8.6 14.2-7.2l13.2 4.8v.1Z" clip-rule="evenodd"/>
  <path fill="#0092FF" fill-rule="evenodd" d="m48 205.4-.3 59c0 .5.2.8.4.8l.7-.3 118.1-68.1a7 7 0 0 0 3-5.2v-31.9l-11.8-4.2c-3-1.1-8.1 1.6-11.8 6.5l-29.8 38.2c-4.8 6.2-11 9.4-16 8l-39.4-11.4c-3.3-1-8.5 2.1-12.3 7.3l-.8 1.4Zm.1 63.8c-.8 0-1.5-.2-2-.5-1.3-.8-2.2-2.3-2.2-4.3v-59.6c0-.4.2-.8.4-1.1l1.3-2c5-6.6 11.5-10.2 16.6-8.8l39.5 11.5c3.2.9 8-1.8 11.7-6.6l29.7-38.2c5-6.4 11.7-9.6 16.4-7.8l13.2 4.7a2 2 0 0 1 1.2 1.9v33.3c0 3.2-2.2 7-5 8.6l-118 68c-1 .6-2 .9-2.8.9Z" clip-rule="evenodd"/>
  <path fill="#002298" fill-rule="evenodd" d="m172 158.3-13.2-4.7c-3.8-1.4-9.6 1.5-14.2 7.2L115 198.9c-4.4 5.6-9.8 8.5-13.9 7.3L61.7 195c-4.2-1.3-10.2 2-14.5 8l-1.3 2V122L172 49.3v109Z" clip-rule="evenodd"/>
  <path fill="#0092FF" fill-rule="evenodd" d="M59.8 192.5c.9 0 1.6.2 2.4.4l39.5 11.3c3.2 1 8-1.8 11.7-6.6l29.7-38.1c5-6.4 11.7-9.6 16.4-7.9l10.5 3.9V52.7L48 123.2v75.7c3.5-4 7.9-6.4 11.8-6.4Zm43 16c-.8 0-1.5-.2-2.3-.4L61 196.7c-3.2-1-8.5 2.2-12.2 7.3l-1.4 2c-.5.6-1.3 1-2.2.6a2 2 0 0 1-1.3-1.8V122a2 2 0 0 1 1-1.7L171 47.5c.5-.4 1.4-.4 2 0 .6.3 1.1 1 1.1 1.8l-.2 109a2 2 0 0 1-.8 1.6c-.5.4-1.2.5-1.7.3l-13.2-4.8c-3-1.1-8.2 1.6-11.8 6.5l-29.9 38.3c-4 5.2-9.2 8.2-13.6 8.2Z" clip-rule="evenodd"/>
  <path fill="#291AD8" fill-rule="evenodd" d="M135.6 88.3c11.4-6.5 20.5-1.2 20.5 11.8 0 13.1-9.1 29-20.5 35.5s-20.5 1.2-20.5-11.9c0-13 9.1-28.9 20.5-35.4Z" clip-rule="evenodd"/>
  <path fill="#0092FF" fill-rule="evenodd" d="M144.7 87.5c-2.3 0-5.2.9-8.1 2.5a43.3 43.3 0 0 0-19.5 33.7c0 5.6 1.9 9.7 5.1 11.6 3.3 1.8 7.7 1.3 12.4-1.5a43.3 43.3 0 0 0 19.5-33.7c0-5.5-1.7-9.7-5-11.5-1.3-.8-2.9-1-4.4-1Zm-18.3 53c-2.2 0-4.4-.6-6.2-1.7-4.6-2.6-7-7.9-7-15 0-13.6 9.5-30.3 21.4-37.2 6-3.5 12-4 16.6-1.4 4.4 2.6 7 8 7 15 0 13.6-9.7 30.3-21.6 37.2-3.6 2-7 3-10.2 3Z" clip-rule="evenodd"/>
</svg>
